src/assets/icons/svg/user.svg

<svg width="24" height="24" viewBox="0 0 24 24" fill="none" xmlns="http://www.w3.org/2000/svg">
<path d="M23.9391 20.5651C23.8336 20.0582 23.3373 19.7329 22.8302 19.8384C22.3233 19.9439 21.998 20.4404 22.1035 20.9473C22.1643 21.2393 22.0919 21.5385 21.905 21.7685C21.7967 21.9016 21.5552 22.125 21.155 22.125H2.84497C2.44475 22.125 2.20329 21.9016 2.09501 21.7685C1.90803 21.5385 1.83565 21.2393 1.89645 20.9473C2.86939 16.2741 6.99134 12.8603 11.7515 12.7452C11.8339 12.7484 11.9167 12.75 12 12.75C12.0835 12.75 12.1667 12.7484 12.2495 12.7452C15.6025 12.8256 18.7017 14.5239 20.5785 17.323C20.8669 17.7531 21.4492 17.8679 21.8793 17.5796C22.3093 17.2913 22.4242 16.7089 22.1359 16.2788C20.5976 13.9846 18.3638 12.3163 15.8169 11.478C17.369 10.3142 18.375 8.45986 18.375 6.375C18.375 2.85984 15.5152 0 12 0C8.48478 0 5.62498 2.85984 5.62498 6.375C5.62498 8.46113 6.63223 10.3164 8.1859 11.4802C6.7624 11.9489 5.4267 12.6781 4.25764 13.6397C2.11395 15.403 0.623466 17.8625 0.0608257 20.5651C-0.115518 21.412 0.0957476 22.2818 0.640341 22.9515C1.18226 23.6178 1.98584 24 2.84497 24H21.155C22.0141 24 22.8177 23.6178 23.3596 22.9515C23.9043 22.2818 24.1155 21.412 23.9391 20.5651ZM7.49998 6.375C7.49998 3.89367 9.51865 1.875 12 1.875C14.4813 1.875 16.5 3.89367 16.5 6.375C16.5 8.77992 14.6037 10.7503 12.2277 10.8693C12.152 10.8679 12.076 10.8672 12 10.8672C11.9243 10.8672 11.8487 10.8679 11.7731 10.8693C9.39678 10.7508 7.49998 8.78025 7.49998 6.375Z" fill="black"/>
</svg>

<?xml version="1.0" encoding="iso-8859-1"?>
<!-- Generator: Adobe Illustrator 23.1.0, SVG Export Plug-In . SVG Version: 6.00 Build 0)  -->
<svg version="1.1" id="&#x421;&#x43B;&#x43E;&#x439;_1"
	 xmlns="http://www.w3.org/2000/svg" xmlns:xlink="http://www.w3.org/1999/xlink" x="0px" y="0px" viewBox="0 0 24 24"
	 style="enable-background:new 0 0 24 24;" xml:space="preserve">
<path d="M23.939,20.565c-0.106-0.507-0.602-0.832-1.109-0.727c-0.507,0.105-0.832,0.602-0.727,1.109
	c0.061,0.292-0.012,0.591-0.198,0.821c-0.108,0.133-0.35,0.357-0.75,0.357H2.845c-0.4,0-0.642-0.223-0.75-0.357
	c-0.187-0.23-0.259-0.529-0.199-0.821c0.973-4.673,5.095-8.087,9.855-8.202c0.082,0.003,0.165,0.005,0.248,0.005
	c0.083,0,0.167-0.002,0.25-0.005c3.353,0.08,6.452,1.779,8.329,4.578c0.288,0.43,0.871,0.545,1.301,0.257
	c0.43-0.288,0.545-0.871,0.257-1.301c-1.538-2.294-3.772-3.962-6.319-4.801c1.552-1.164,2.558-3.018,2.558-5.103
	C18.375,2.86,15.515,0,12,0C8.485,0,5.625,2.86,5.625,6.375c0,2.086,1.007,3.941,2.561,5.105c-1.423,0.469-2.759,1.198-3.928,2.16
	c-2.144,1.763-3.634,4.223-4.197,6.925c-0.176,0.847,0.035,1.717,0.58,2.386C1.182,23.618,1.986,24,2.845,24h18.31
	c0.859,0,1.663-0.382,2.205-1.049C23.904,22.282,24.115,21.412,23.939,20.565z M7.5,6.375c0-2.481,2.019-4.5,4.5-4.5
	c2.481,0,4.5,2.019,4.5,4.5c0,2.405-1.896,4.375-4.272,4.494c-0.076-0.001-0.152-0.002-0.228-0.002
	c-0.076,0-0.151,0.001-0.227,0.002C9.397,10.751,7.5,8.78,7.5,6.375z"/>
</svg>
